static/img/in-field/switches-example-dark.svg

<svg width="1087" height="239" viewBox="0 0 1087 239" fill="none" xmlns="http://www.w3.org/2000/svg">
<rect width="1087" height="239" fill="#353A40"/>
<rect width="686" height="199" transform="translate(200.5 20)" fill="#6A6E79"/>
<rect width="684" height="65" transform="translate(201.5 21)" fill="#464B52"/>
<path d="M219.659 62.5V46.7949H221.485V60.8457H228.414V62.5H219.659ZM232.854 62.5H231.07V50.7266H232.854V62.5ZM230.92 47.5361C230.92 47.1279 231.02 46.8307 231.221 46.6445C231.421 46.4512 231.672 46.3545 231.973 46.3545C232.259 46.3545 232.506 46.4512 232.714 46.6445C232.922 46.8379 233.025 47.1351 233.025 47.5361C233.025 47.9372 232.922 48.238 232.714 48.4385C232.506 48.6318 232.259 48.7285 231.973 48.7285C231.672 48.7285 231.421 48.6318 231.221 48.4385C231.02 48.238 230.92 47.9372 230.92 47.5361ZM244.479 59.2881C244.479 60.3838 244.071 61.2288 243.255 61.8232C242.438 62.4176 241.293 62.7148 239.817 62.7148C238.256 62.7148 237.039 62.4678 236.165 61.9736V60.3193C236.731 60.6058 237.336 60.8314 237.98 60.9961C238.632 61.1608 239.259 61.2432 239.86 61.2432C240.791 61.2432 241.507 61.0964 242.009 60.8027C242.51 60.502 242.761 60.0472 242.761 59.4385C242.761 58.9801 242.56 58.5898 242.159 58.2676C241.765 57.9382 240.992 57.5514 239.839 57.1074C238.743 56.6992 237.963 56.3447 237.497 56.0439C237.039 55.736 236.695 55.3887 236.466 55.002C236.244 54.6152 236.133 54.1533 236.133 53.6162C236.133 52.6566 236.523 51.901 237.304 51.3496C238.084 50.791 239.155 50.5117 240.516 50.5117C241.783 50.5117 243.022 50.7695 244.232 51.2852L243.599 52.7354C242.417 52.2484 241.346 52.0049 240.387 52.0049C239.542 52.0049 238.904 52.1374 238.475 52.4023C238.045 52.6673 237.83 53.0326 237.83 53.498C237.83 53.8132 237.909 54.0817 238.066 54.3037C238.231 54.5257 238.493 54.737 238.851 54.9375C239.209 55.138 239.896 55.4281 240.913 55.8076C242.31 56.3161 243.251 56.8281 243.738 57.3438C244.232 57.8594 244.479 58.5075 244.479 59.2881ZM251.443 61.2432C251.758 61.2432 252.063 61.2217 252.356 61.1787C252.65 61.1286 252.883 61.0785 253.055 61.0283V62.3926C252.861 62.4857 252.575 62.5609 252.195 62.6182C251.823 62.6826 251.486 62.7148 251.186 62.7148C248.908 62.7148 247.77 61.5153 247.77 59.1162V52.1123H246.083V51.2529L247.77 50.5117L248.521 47.998H249.553V50.7266H252.969V52.1123H249.553V59.041C249.553 59.75 249.721 60.2943 250.058 60.6738C250.394 61.0534 250.856 61.2432 251.443 61.2432ZM261.901 62.5V46.7949H263.728V62.5H261.901ZM271.83 61.2432C272.145 61.2432 272.45 61.2217 272.743 61.1787C273.037 61.1286 273.27 61.0785 273.441 61.0283V62.3926C273.248 62.4857 272.962 62.5609 272.582 62.6182C272.21 62.6826 271.873 62.7148 271.572 62.7148C269.295 62.7148 268.156 61.5153 268.156 59.1162V52.1123H266.47V51.2529L268.156 50.5117L268.908 47.998H269.939V50.7266H273.355V52.1123H269.939V59.041C269.939 59.75 270.108 60.2943 270.444 60.6738C270.781 61.0534 271.243 61.2432 271.83 61.2432ZM281.028 62.7148C279.288 62.7148 277.913 62.1849 276.903 61.125C275.901 60.0651 275.399 58.5934 275.399 56.71C275.399 54.8122 275.865 53.3047 276.796 52.1875C277.734 51.0703 278.991 50.5117 280.566 50.5117C282.042 50.5117 283.209 50.9987 284.068 51.9727C284.928 52.9395 285.357 54.2178 285.357 55.8076V56.9355H277.247C277.283 58.3177 277.63 59.3669 278.289 60.083C278.955 60.7992 279.89 61.1572 281.093 61.1572C282.36 61.1572 283.614 60.8923 284.853 60.3623V61.9521C284.222 62.2243 283.624 62.4176 283.059 62.5322C282.5 62.654 281.823 62.7148 281.028 62.7148ZM280.545 52.0049C279.6 52.0049 278.844 52.3128 278.278 52.9287C277.72 53.5446 277.39 54.3968 277.29 55.4854H283.445C283.445 54.361 283.195 53.5016 282.693 52.9072C282.192 52.3057 281.476 52.0049 280.545 52.0049ZM303.665 62.5V54.8408C303.665 53.9027 303.465 53.2008 303.063 52.7354C302.662 52.2627 302.039 52.0264 301.194 52.0264C300.084 52.0264 299.264 52.3451 298.734 52.9824C298.204 53.6198 297.939 54.6009 297.939 55.9258V62.5H296.156V54.8408C296.156 53.9027 295.956 53.2008 295.555 52.7354C295.154 52.2627 294.527 52.0264 293.675 52.0264C292.558 52.0264 291.738 52.363 291.215 53.0361C290.699 53.7021 290.441 54.7979 290.441 56.3232V62.5H288.658V50.7266H290.108L290.398 52.3379H290.484C290.821 51.765 291.294 51.3174 291.902 50.9951C292.518 50.6729 293.206 50.5117 293.965 50.5117C295.805 50.5117 297.008 51.1777 297.574 52.5098H297.66C298.011 51.8939 298.52 51.4069 299.186 51.0488C299.852 50.6908 300.611 50.5117 301.463 50.5117C302.795 50.5117 303.79 50.8555 304.449 51.543C305.115 52.2233 305.448 53.3154 305.448 54.8193V62.5H303.665Z" fill="#fff"/>
<rect x="798.5" y="37.5" width="64" height="32" rx="16" fill="#019AEB"/>
<path d="M859.5 53.5C859.5 60.6797 853.68 66.5 846.5 66.5C839.32 66.5 833.5 60.6797 833.5 53.5C833.5 46.3203 839.32 40.5 846.5 40.5C853.68 40.5 859.5 46.3203 859.5 53.5Z" fill="#fff"/>
<rect width="684" height="65" transform="translate(201.5 87)" fill="#464B52"/>
<path d="M219.659 128.5V112.795H221.485V126.846H228.414V128.5H219.659ZM232.854 128.5H231.07V116.727H232.854V128.5ZM230.92 113.536C230.92 113.128 231.02 112.831 231.221 112.645C231.421 112.451 231.672 112.354 231.973 112.354C232.259 112.354 232.506 112.451 232.714 112.645C232.922 112.838 233.025 113.135 233.025 113.536C233.025 113.937 232.922 114.238 232.714 114.438C232.506 114.632 232.259 114.729 231.973 114.729C231.672 114.729 231.421 114.632 231.221 114.438C231.02 114.238 230.92 113.937 230.92 113.536ZM244.479 125.288C244.479 126.384 244.071 127.229 243.255 127.823C242.438 128.418 241.293 128.715 239.817 128.715C238.256 128.715 237.039 128.468 236.165 127.974V126.319C236.731 126.606 237.336 126.831 237.98 126.996C238.632 127.161 239.259 127.243 239.86 127.243C240.791 127.243 241.507 127.096 242.009 126.803C242.51 126.502 242.761 126.047 242.761 125.438C242.761 124.98 242.56 124.59 242.159 124.268C241.765 123.938 240.992 123.551 239.839 123.107C238.743 122.699 237.963 122.345 237.497 122.044C237.039 121.736 236.695 121.389 236.466 121.002C236.244 120.615 236.133 120.153 236.133 119.616C236.133 118.657 236.523 117.901 237.304 117.35C238.084 116.791 239.155 116.512 240.516 116.512C241.783 116.512 243.022 116.77 244.232 117.285L243.599 118.735C242.417 118.248 241.346 118.005 240.387 118.005C239.542 118.005 238.904 118.137 238.475 118.402C238.045 118.667 237.83 119.033 237.83 119.498C237.83 119.813 237.909 120.082 238.066 120.304C238.231 120.526 238.493 120.737 238.851 120.938C239.209 121.138 239.896 121.428 240.913 121.808C242.31 122.316 243.251 122.828 243.738 123.344C244.232 123.859 244.479 124.507 244.479 125.288ZM251.443 127.243C251.758 127.243 252.063 127.222 252.356 127.179C252.65 127.129 252.883 127.078 253.055 127.028V128.393C252.861 128.486 252.575 128.561 252.195 128.618C251.823 128.683 251.486 128.715 251.186 128.715C248.908 128.715 247.77 127.515 247.77 125.116V118.112H246.083V117.253L247.77 116.512L248.521 113.998H249.553V116.727H252.969V118.112H249.553V125.041C249.553 125.75 249.721 126.294 250.058 126.674C250.394 127.053 250.856 127.243 251.443 127.243ZM261.901 128.5V112.795H263.728V128.5H261.901ZM271.83 127.243C272.145 127.243 272.45 127.222 272.743 127.179C273.037 127.129 273.27 127.078 273.441 127.028V128.393C273.248 128.486 272.962 128.561 272.582 128.618C272.21 128.683 271.873 128.715 271.572 128.715C269.295 128.715 268.156 127.515 268.156 125.116V118.112H266.47V117.253L268.156 116.512L268.908 113.998H269.939V116.727H273.355V118.112H269.939V125.041C269.939 125.75 270.108 126.294 270.444 126.674C270.781 127.053 271.243 127.243 271.83 127.243ZM281.028 128.715C279.288 128.715 277.913 128.185 276.903 127.125C275.901 126.065 275.399 124.593 275.399 122.71C275.399 120.812 275.865 119.305 276.796 118.188C277.734 117.07 278.991 116.512 280.566 116.512C282.042 116.512 283.209 116.999 284.068 117.973C284.928 118.939 285.357 120.218 285.357 121.808V122.936H277.247C277.283 124.318 277.63 125.367 278.289 126.083C278.955 126.799 279.89 127.157 281.093 127.157C282.36 127.157 283.614 126.892 284.853 126.362V127.952C284.222 128.224 283.624 128.418 283.059 128.532C282.5 128.654 281.823 128.715 281.028 128.715ZM280.545 118.005C279.6 118.005 278.844 118.313 278.278 118.929C277.72 119.545 277.39 120.397 277.29 121.485H283.445C283.445 120.361 283.195 119.502 282.693 118.907C282.192 118.306 281.476 118.005 280.545 118.005ZM303.665 128.5V120.841C303.665 119.903 303.465 119.201 303.063 118.735C302.662 118.263 302.039 118.026 301.194 118.026C300.084 118.026 299.264 118.345 298.734 118.982C298.204 119.62 297.939 120.601 297.939 121.926V128.5H296.156V120.841C296.156 119.903 295.956 119.201 295.555 118.735C295.154 118.263 294.527 118.026 293.675 118.026C292.558 118.026 291.738 118.363 291.215 119.036C290.699 119.702 290.441 120.798 290.441 122.323V128.5H288.658V116.727H290.108L290.398 118.338H290.484C290.821 117.765 291.294 117.317 291.902 116.995C292.518 116.673 293.206 116.512 293.965 116.512C295.805 116.512 297.008 117.178 297.574 118.51H297.66C298.011 117.894 298.52 117.407 299.186 117.049C299.852 116.691 300.611 116.512 301.463 116.512C302.795 116.512 303.79 116.855 304.449 117.543C305.115 118.223 305.448 119.315 305.448 120.819V128.5H303.665Z" fill="#fff"/>
<rect width="64" height="32" rx="16" transform="matrix(-1 0 0 1 862.5 103.5)" fill="#90939F"/>
<path d="M824.5 119.5C824.5 113.977 820.023 109.5 814.5 109.5C808.977 109.5 804.5 113.977 804.5 119.5C804.5 125.023 808.977 129.5 814.5 129.5C820.023 129.5 824.5 125.023 824.5 119.5Z" fill="#fff"/>
<rect width="684" height="65" transform="translate(201.5 153)" fill="#464B52"/>
<path d="M219.659 194.5V178.795H221.485V192.846H228.414V194.5H219.659ZM232.854 194.5H231.07V182.727H232.854V194.5ZM230.92 179.536C230.92 179.128 231.02 178.831 231.221 178.645C231.421 178.451 231.672 178.354 231.973 178.354C232.259 178.354 232.506 178.451 232.714 178.645C232.922 178.838 233.025 179.135 233.025 179.536C233.025 179.937 232.922 180.238 232.714 180.438C232.506 180.632 232.259 180.729 231.973 180.729C231.672 180.729 231.421 180.632 231.221 180.438C231.02 180.238 230.92 179.937 230.92 179.536ZM244.479 191.288C244.479 192.384 244.071 193.229 243.255 193.823C242.438 194.418 241.293 194.715 239.817 194.715C238.256 194.715 237.039 194.468 236.165 193.974V192.319C236.731 192.606 237.336 192.831 237.98 192.996C238.632 193.161 239.259 193.243 239.86 193.243C240.791 193.243 241.507 193.096 242.009 192.803C242.51 192.502 242.761 192.047 242.761 191.438C242.761 190.98 242.56 190.59 242.159 190.268C241.765 189.938 240.992 189.551 239.839 189.107C238.743 188.699 237.963 188.345 237.497 188.044C237.039 187.736 236.695 187.389 236.466 187.002C236.244 186.615 236.133 186.153 236.133 185.616C236.133 184.657 236.523 183.901 237.304 183.35C238.084 182.791 239.155 182.512 240.516 182.512C241.783 182.512 243.022 182.77 244.232 183.285L243.599 184.735C242.417 184.248 241.346 184.005 240.387 184.005C239.542 184.005 238.904 184.137 238.475 184.402C238.045 184.667 237.83 185.033 237.83 185.498C237.83 185.813 237.909 186.082 238.066 186.304C238.231 186.526 238.493 186.737 238.851 186.938C239.209 187.138 239.896 187.428 240.913 187.808C242.31 188.316 243.251 188.828 243.738 189.344C244.232 189.859 244.479 190.507 244.479 191.288ZM251.443 193.243C251.758 193.243 252.063 193.222 252.356 193.179C252.65 193.129 252.883 193.078 253.055 193.028V194.393C252.861 194.486 252.575 194.561 252.195 194.618C251.823 194.683 251.486 194.715 251.186 194.715C248.908 194.715 247.77 193.515 247.77 191.116V184.112H246.083V183.253L247.77 182.512L248.521 179.998H249.553V182.727H252.969V184.112H249.553V191.041C249.553 191.75 249.721 192.294 250.058 192.674C250.394 193.053 250.856 193.243 251.443 193.243ZM261.901 194.5V178.795H263.728V194.5H261.901ZM271.83 193.243C272.145 193.243 272.45 193.222 272.743 193.179C273.037 193.129 273.27 193.078 273.441 193.028V194.393C273.248 194.486 272.962 194.561 272.582 194.618C272.21 194.683 271.873 194.715 271.572 194.715C269.295 194.715 268.156 193.515 268.156 191.116V184.112H266.47V183.253L268.156 182.512L268.908 179.998H269.939V182.727H273.355V184.112H269.939V191.041C269.939 191.75 270.108 192.294 270.444 192.674C270.781 193.053 271.243 193.243 271.83 193.243ZM281.028 194.715C279.288 194.715 277.913 194.185 276.903 193.125C275.901 192.065 275.399 190.593 275.399 188.71C275.399 186.812 275.865 185.305 276.796 184.188C277.734 183.07 278.991 182.512 280.566 182.512C282.042 182.512 283.209 182.999 284.068 183.973C284.928 184.939 285.357 186.218 285.357 187.808V188.936H277.247C277.283 190.318 277.63 191.367 278.289 192.083C278.955 192.799 279.89 193.157 281.093 193.157C282.36 193.157 283.614 192.892 284.853 192.362V193.952C284.222 194.224 283.624 194.418 283.059 194.532C282.5 194.654 281.823 194.715 281.028 194.715ZM280.545 184.005C279.6 184.005 278.844 184.313 278.278 184.929C277.72 185.545 277.39 186.397 277.29 187.485H283.445C283.445 186.361 283.195 185.502 282.693 184.907C282.192 184.306 281.476 184.005 280.545 184.005ZM303.665 194.5V186.841C303.665 185.903 303.465 185.201 303.063 184.735C302.662 184.263 302.039 184.026 301.194 184.026C300.084 184.026 299.264 184.345 298.734 184.982C298.204 185.62 297.939 186.601 297.939 187.926V194.5H296.156V186.841C296.156 185.903 295.956 185.201 295.555 184.735C295.154 184.263 294.527 184.026 293.675 184.026C292.558 184.026 291.738 184.363 291.215 185.036C290.699 185.702 290.441 186.798 290.441 188.323V194.5H288.658V182.727H290.108L290.398 184.338H290.484C290.821 183.765 291.294 183.317 291.902 182.995C292.518 182.673 293.206 182.512 293.965 182.512C295.805 182.512 297.008 183.178 297.574 184.51H297.66C298.011 183.894 298.52 183.407 299.186 183.049C299.852 182.691 300.611 182.512 301.463 182.512C302.795 182.512 303.79 182.855 304.449 183.543C305.115 184.223 305.448 185.315 305.448 186.819V194.5H303.665Z" fill="#fff"/>
<rect x="798.5" y="169.5" width="64" height="32" rx="16" fill="#019AEB"/>
<path d="M859.5 185.5C859.5 192.68 853.68 198.5 846.5 198.5C839.32 198.5 833.5 192.68 833.5 185.5C833.5 178.32 839.32 172.5 846.5 172.5C853.68 172.5 859.5 178.32 859.5 185.5Z" fill="#fff"/>
</svg>

<svg width="1087" height="239" fill="none" xmlns="http://www.w3.org/2000/svg"><path fill="#353A40" d="M0 0h1087v239H0z"/><path fill="#6A6E79" d="M200.5 20h686v199h-686z"/><path fill="#464B52" d="M201.5 21h684v65h-684z"/><path d="M219.659 62.5V46.795h1.826v14.05h6.929V62.5h-8.755zm13.195 0h-1.784V50.727h1.784V62.5zm-1.934-14.964c0-.408.1-.705.301-.892.2-.193.451-.29.752-.29.286 0 .533.097.741.29.208.194.311.491.311.892s-.103.702-.311.902c-.208.194-.455.29-.741.29a1.04 1.04 0 01-.752-.29c-.201-.2-.301-.5-.301-.902zm13.559 11.752c0 1.096-.408 1.94-1.224 2.535-.817.595-1.962.892-3.438.892-1.561 0-2.778-.247-3.652-.741v-1.655a8.872 8.872 0 001.815.677 7.674 7.674 0 001.88.247c.931 0 1.647-.147 2.149-.44.501-.301.752-.756.752-1.364 0-.459-.201-.85-.602-1.171-.394-.33-1.167-.717-2.32-1.16-1.096-.409-1.876-.763-2.342-1.064-.458-.308-.802-.655-1.031-1.042-.222-.387-.333-.849-.333-1.386 0-.96.39-1.715 1.171-2.266.78-.559 1.851-.838 3.212-.838 1.267 0 2.506.258 3.716.773l-.633 1.45c-1.182-.487-2.253-.73-3.212-.73-.845 0-1.483.132-1.912.397-.43.265-.645.63-.645 1.096 0 .315.079.584.236.806.165.222.427.433.785.633.358.201 1.045.491 2.062.87 1.397.51 2.338 1.021 2.825 1.537.494.515.741 1.163.741 1.944zm6.964 1.955c.315 0 .62-.021.913-.064.294-.05.527-.1.699-.15v1.364c-.194.093-.48.168-.86.225a5.974 5.974 0 01-1.009.097c-2.278 0-3.416-1.2-3.416-3.599v-7.004h-1.687v-.86l1.687-.74.751-2.514h1.032v2.729h3.416v1.385h-3.416v6.929c0 .709.168 1.253.505 1.633.336.38.798.57 1.385.57zm10.458 1.257V46.795h1.827V62.5h-1.827zm9.929-1.257c.315 0 .62-.021.913-.064.294-.05.527-.1.698-.15v1.364c-.193.093-.479.168-.859.225a5.975 5.975 0 01-1.01.097c-2.277 0-3.416-1.2-3.416-3.599v-7.004h-1.686v-.86l1.686-.74.752-2.514h1.031v2.729h3.416v1.385h-3.416v6.929c0 .709.169 1.253.505 1.633.337.38.799.57 1.386.57zm9.198 1.472c-1.74 0-3.115-.53-4.125-1.59-1.002-1.06-1.504-2.532-1.504-4.415 0-1.898.466-3.405 1.397-4.523.938-1.117 2.195-1.675 3.77-1.675 1.476 0 2.643.487 3.502 1.46.86.968 1.289 2.246 1.289 3.836v1.127h-8.11c.036 1.383.383 2.432 1.042 3.148.666.716 1.601 1.074 2.804 1.074 1.267 0 2.521-.265 3.76-.795v1.59a9.146 9.146 0 01-1.794.58c-.559.122-1.236.183-2.031.183zm-.483-10.71c-.945 0-1.701.308-2.267.924-.558.616-.888 1.468-.988 2.556h6.155c0-1.124-.25-1.983-.752-2.578-.501-.601-1.217-.902-2.148-.902zm23.12 10.495v-7.66c0-.937-.2-1.64-.602-2.105-.401-.472-1.024-.709-1.869-.709-1.11 0-1.93.32-2.46.956-.53.638-.795 1.619-.795 2.944V62.5h-1.783v-7.66c0-.937-.2-1.64-.601-2.105-.401-.472-1.028-.709-1.88-.709-1.117 0-1.937.337-2.46 1.01-.516.666-.774 1.762-.774 3.287V62.5h-1.783V50.727h1.45l.29 1.61h.086a3.52 3.52 0 011.418-1.342c.616-.322 1.304-.483 2.063-.483 1.84 0 3.043.666 3.609 1.998h.086c.351-.616.86-1.103 1.526-1.461.666-.358 1.425-.537 2.277-.537 1.332 0 2.327.343 2.986 1.031.666.68.999 1.772.999 3.276V62.5h-1.783z" fill="#fff"/><rect x="798.5" y="37.5" width="64" height="32" rx="16" fill="#019AEB"/><path d="M859.5 53.5c0 7.18-5.82 13-13 13s-13-5.82-13-13 5.82-13 13-13 13 5.82 13 13z" fill="#fff"/><path fill="#464B52" d="M201.5 87h684v65h-684z"/><path d="M219.659 128.5v-15.705h1.826v14.051h6.929v1.654h-8.755zm13.195 0h-1.784v-11.773h1.784V128.5zm-1.934-14.964c0-.408.1-.705.301-.891.2-.194.451-.291.752-.291.286 0 .533.097.741.291.208.193.311.49.311.891s-.103.702-.311.902a1.05 1.05 0 01-.741.291c-.301 0-.552-.097-.752-.291-.201-.2-.301-.501-.301-.902zm13.559 11.752c0 1.096-.408 1.941-1.224 2.535-.817.595-1.962.892-3.438.892-1.561 0-2.778-.247-3.652-.741v-1.655a8.861 8.861 0 001.815.677 7.66 7.66 0 001.88.247c.931 0 1.647-.147 2.149-.44.501-.301.752-.756.752-1.365 0-.458-.201-.848-.602-1.17-.394-.33-1.167-.717-2.32-1.161-1.096-.408-1.876-.762-2.342-1.063-.458-.308-.802-.655-1.031-1.042-.222-.387-.333-.849-.333-1.386 0-.959.39-1.715 1.171-2.266.78-.559 1.851-.838 3.212-.838 1.267 0 2.506.258 3.716.773l-.633 1.45c-1.182-.487-2.253-.73-3.212-.73-.845 0-1.483.132-1.912.397-.43.265-.645.631-.645 1.096 0 .315.079.584.236.806.165.222.427.433.785.634.358.2 1.045.49 2.062.87 1.397.508 2.338 1.02 2.825 1.536.494.515.741 1.163.741 1.944zm6.964 1.955c.315 0 .62-.021.913-.064.294-.05.527-.101.699-.151v1.365c-.194.093-.48.168-.86.225a5.916 5.916 0 01-1.009.097c-2.278 0-3.416-1.2-3.416-3.599v-7.004h-1.687v-.859l1.687-.741.751-2.514h1.032v2.729h3.416v1.385h-3.416v6.929c0 .709.168 1.253.505 1.633.336.379.798.569 1.385.569zm10.458 1.257v-15.705h1.827V128.5h-1.827zm9.929-1.257c.315 0 .62-.021.913-.064.294-.05.527-.101.698-.151v1.365c-.193.093-.479.168-.859.225a5.917 5.917 0 01-1.01.097c-2.277 0-3.416-1.2-3.416-3.599v-7.004h-1.686v-.859l1.686-.741.752-2.514h1.031v2.729h3.416v1.385h-3.416v6.929c0 .709.169 1.253.505 1.633.337.379.799.569 1.386.569zm9.198 1.472c-1.74 0-3.115-.53-4.125-1.59-1.002-1.06-1.504-2.532-1.504-4.415 0-1.898.466-3.405 1.397-4.522.938-1.118 2.195-1.676 3.77-1.676 1.476 0 2.643.487 3.502 1.461.86.966 1.289 2.245 1.289 3.835v1.128h-8.11c.036 1.382.383 2.431 1.042 3.147.666.716 1.601 1.074 2.804 1.074 1.267 0 2.521-.265 3.76-.795v1.59a9.12 9.12 0 01-1.794.58c-.559.122-1.236.183-2.031.183zm-.483-10.71c-.945 0-1.701.308-2.267.924-.558.616-.888 1.468-.988 2.556h6.155c0-1.124-.25-1.983-.752-2.578-.501-.601-1.217-.902-2.148-.902zm23.12 10.495v-7.659c0-.938-.2-1.64-.602-2.106-.401-.472-1.024-.709-1.869-.709-1.11 0-1.93.319-2.46.956-.53.638-.795 1.619-.795 2.944v6.574h-1.783v-7.659c0-.938-.2-1.64-.601-2.106-.401-.472-1.028-.709-1.88-.709-1.117 0-1.937.337-2.46 1.01-.516.666-.774 1.762-.774 3.287v6.177h-1.783v-11.773h1.45l.29 1.611h.086a3.518 3.518 0 011.418-1.343c.616-.322 1.304-.483 2.063-.483 1.84 0 3.043.666 3.609 1.998h.086c.351-.616.86-1.103 1.526-1.461.666-.358 1.425-.537 2.277-.537 1.332 0 2.327.343 2.986 1.031.666.68.999 1.772.999 3.276v7.681h-1.783z" fill="#fff"/><rect width="64" height="32" rx="16" transform="matrix(-1 0 0 1 862.5 103.5)" fill="#90939F"/><path d="M824.5 119.5c0-5.523-4.477-10-10-10s-10 4.477-10 10 4.477 10 10 10 10-4.477 10-10z" fill="#fff"/><path fill="#464B52" d="M201.5 153h684v65h-684z"/><path d="M219.659 194.5v-15.705h1.826v14.051h6.929v1.654h-8.755zm13.195 0h-1.784v-11.773h1.784V194.5zm-1.934-14.964c0-.408.1-.705.301-.891.2-.194.451-.291.752-.291.286 0 .533.097.741.291.208.193.311.49.311.891s-.103.702-.311.902a1.05 1.05 0 01-.741.291c-.301 0-.552-.097-.752-.291-.201-.2-.301-.501-.301-.902zm13.559 11.752c0 1.096-.408 1.941-1.224 2.535-.817.595-1.962.892-3.438.892-1.561 0-2.778-.247-3.652-.741v-1.655a8.861 8.861 0 001.815.677 7.66 7.66 0 001.88.247c.931 0 1.647-.147 2.149-.44.501-.301.752-.756.752-1.365 0-.458-.201-.848-.602-1.17-.394-.33-1.167-.717-2.32-1.161-1.096-.408-1.876-.762-2.342-1.063-.458-.308-.802-.655-1.031-1.042-.222-.387-.333-.849-.333-1.386 0-.959.39-1.715 1.171-2.266.78-.559 1.851-.838 3.212-.838 1.267 0 2.506.258 3.716.773l-.633 1.45c-1.182-.487-2.253-.73-3.212-.73-.845 0-1.483.132-1.912.397-.43.265-.645.631-.645 1.096 0 .315.079.584.236.806.165.222.427.433.785.634.358.2 1.045.49 2.062.87 1.397.508 2.338 1.02 2.825 1.536.494.515.741 1.163.741 1.944zm6.964 1.955c.315 0 .62-.021.913-.064.294-.05.527-.101.699-.151v1.365c-.194.093-.48.168-.86.225a5.916 5.916 0 01-1.009.097c-2.278 0-3.416-1.2-3.416-3.599v-7.004h-1.687v-.859l1.687-.741.751-2.514h1.032v2.729h3.416v1.385h-3.416v6.929c0 .709.168 1.253.505 1.633.336.379.798.569 1.385.569zm10.458 1.257v-15.705h1.827V194.5h-1.827zm9.929-1.257c.315 0 .62-.021.913-.064.294-.05.527-.101.698-.151v1.365c-.193.093-.479.168-.859.225a5.917 5.917 0 01-1.01.097c-2.277 0-3.416-1.2-3.416-3.599v-7.004h-1.686v-.859l1.686-.741.752-2.514h1.031v2.729h3.416v1.385h-3.416v6.929c0 .709.169 1.253.505 1.633.337.379.799.569 1.386.569zm9.198 1.472c-1.74 0-3.115-.53-4.125-1.59-1.002-1.06-1.504-2.532-1.504-4.415 0-1.898.466-3.405 1.397-4.522.938-1.118 2.195-1.676 3.77-1.676 1.476 0 2.643.487 3.502 1.461.86.966 1.289 2.245 1.289 3.835v1.128h-8.11c.036 1.382.383 2.431 1.042 3.147.666.716 1.601 1.074 2.804 1.074 1.267 0 2.521-.265 3.76-.795v1.59a9.12 9.12 0 01-1.794.58c-.559.122-1.236.183-2.031.183zm-.483-10.71c-.945 0-1.701.308-2.267.924-.558.616-.888 1.468-.988 2.556h6.155c0-1.124-.25-1.983-.752-2.578-.501-.601-1.217-.902-2.148-.902zm23.12 10.495v-7.659c0-.938-.2-1.64-.602-2.106-.401-.472-1.024-.709-1.869-.709-1.11 0-1.93.319-2.46.956-.53.638-.795 1.619-.795 2.944v6.574h-1.783v-7.659c0-.938-.2-1.64-.601-2.106-.401-.472-1.028-.709-1.88-.709-1.117 0-1.937.337-2.46 1.01-.516.666-.774 1.762-.774 3.287v6.177h-1.783v-11.773h1.45l.29 1.611h.086a3.518 3.518 0 011.418-1.343c.616-.322 1.304-.483 2.063-.483 1.84 0 3.043.666 3.609 1.998h.086c.351-.616.86-1.103 1.526-1.461.666-.358 1.425-.537 2.277-.537 1.332 0 2.327.343 2.986 1.031.666.68.999 1.772.999 3.276v7.681h-1.783z" fill="#fff"/><rect x="798.5" y="169.5" width="64" height="32" rx="16" fill="#019AEB"/><path d="M859.5 185.5c0 7.18-5.82 13-13 13s-13-5.82-13-13 5.82-13 13-13 13 5.82 13 13z" fill="#fff"/></svg>
